315
albertroad.htmlalbertroad.htmlalbertroad.htmlalbertroad.htmlalbertroad.htmlalbertroad.htmlalbertroad.htmlalbertroad.htmlalbertroad.htmlDiarmaid Moynihan
albertroad.htmlFrom <I>Flook: Flatfish</I>
albertroad.htmlalbertroad.html

T:Paper Bird, The
M:C|
L:1/8
C:Diarmaid Moynihan
R:reel
D:Flook: Flatfish
Z:Devin McCabe
K:EMin
EFGA ~B2AB|EFGB d/2d/2d cB|EFGA ~B2cB|1ABFG E2zB:|2ABFG E2z2|
!:GEGA ~B2Bd|GEBc {(BcB)} cBA2|GEGA ~B2de|1BAGA ~B2z2:|2BAGA B3z|
!:e2de BABd|(3ABd ed BABd|e2de BAGA|1BcBA (^A~B3):|2BcBG E4||

%  ABC2Win Version 2.1 12/9/2000



albertroad.htmlalbertroad.htmlalbertroad.htmlalbertroad.htmlalbertroad.htmlalbertroad.html
0

